style/elvis/src/icons/svg/src/search.svg

<svg width="24" height="25" viewBox="0 0 24 25" fill="none" xmlns="http://www.w3.org/2000/svg">
<path fill-rule="evenodd" clip-rule="evenodd" d="M13.5865 13.6016C15.5671 11.6188 15.5671 8.40411 13.5865 6.42133C11.606 4.43855 8.39498 4.43855 6.41447 6.42133C4.43395 8.40411 4.43395 11.6188 6.41447 13.6016C8.39498 15.5844 11.606 15.5844 13.5865 13.6016ZM15.0008 5.0055C17.7623 7.77022 17.7623 12.2527 15.0008 15.0175C12.2392 17.7822 7.76182 17.7822 5.00025 15.0175C2.23869 12.2527 2.23869 7.77022 5.00025 5.0055C7.76182 2.24077 12.2392 2.24077 15.0008 5.0055Z" fill="black"/>
<path fill-rule="evenodd" clip-rule="evenodd" d="M15.8847 15.9023C16.2752 15.5113 16.9083 15.5113 17.2989 15.9023L20.2536 18.8604C20.6441 19.2514 20.6441 19.8853 20.2536 20.2762C19.863 20.6672 19.2299 20.6672 18.8394 20.2762L15.8847 17.3181C15.4941 16.9272 15.4941 16.2933 15.8847 15.9023Z" fill="black"/>
</svg>

<svg width="24" height="25" fill="none" xmlns="http://www.w3.org/2000/svg"><path fill-rule="evenodd" clip-rule="evenodd" d="M13.586 13.602a5.081 5.081 0 000-7.18 5.067 5.067 0 00-7.172 0 5.081 5.081 0 000 7.18 5.067 5.067 0 007.172 0zm1.415-8.597a7.085 7.085 0 010 10.012 7.066 7.066 0 01-10 0A7.085 7.085 0 015 5.005a7.066 7.066 0 0110 0zm.884 10.897a1 1 0 011.414 0l2.955 2.958c.39.391.39 1.025 0 1.416a1 1 0 01-1.415 0l-2.954-2.958a1.002 1.002 0 010-1.416z" fill="#1B314B"/></svg>
